public/illustrations/_official.svg

<svg width="385" height="318" viewBox="0 0 385 318" fill="none" xmlns="http://www.w3.org/2000/svg">
<path d="M186.894 88.6911L187.163 84.8825C187.771 60.6571 188.366 36.5593 188.833 12.4614C188.989 10.196 188.89 7.7747 189.187 5.53764C189.499 1.16264 192.939 -1.14523 197.074 0.567963C199.551 1.60154 201.859 3.04599 203.87 4.74503C209.094 9.09171 213.54 14.387 216.938 20.3053C221.865 28.758 228.718 36.0636 237.001 41.3448C242.565 44.8703 244.633 49.6986 244.179 56.0558C243.84 60.7139 243.797 65.2589 243.472 69.9171C243.033 75.9911 240.158 78.4829 233.929 78.313C224.442 78.0582 216.159 74.7593 208.443 69.5206C206.277 68.0906 204.252 66.519 202.242 64.9616C201.166 64.1687 199.934 63.5171 198.022 62.526C197.81 71.4601 197.626 79.8138 197.456 88.1815C198.872 88.2807 199.849 88.4931 200.84 88.5639C227.798 90.7868 254.827 89.8946 281.757 90.5601C301.31 90.9707 320.891 91.2538 340.458 91.5228C347.977 91.636 355.665 91.3387 363.197 91.1688C367.742 91.0697 372.146 91.0983 376.69 91.1408C377.965 91.2258 379.239 91.3247 380.485 91.6928C381.306 92.0327 382.141 92.3865 382.807 92.9953C383.472 93.6041 383.982 94.3545 384.364 95.0908C384.732 95.9686 384.945 96.8324 384.888 97.6819C384.832 98.5314 384.761 99.5226 384.279 100.188C383.628 101.42 382.821 102.637 382.042 103.713C377.129 110.878 372.075 118.042 367.006 125.206C366.383 126.013 366.043 126.835 365.689 127.811C365.477 128.788 365.547 129.794 365.477 130.771C366.015 135.217 365.689 139.733 366.071 144.151C368.592 174.138 367.997 204.197 369.101 234.227C369.937 258.141 370.347 282.013 370.899 305.898C370.999 312.44 368.691 314.818 361.852 315.186C356.019 315.328 350.058 315.328 344.083 315.47L265.828 315.937C251.344 316.036 236.732 315.965 222.234 316.064C200.075 316.177 178.058 316.432 155.9 316.546C141.841 316.673 127.923 316.659 113.863 316.786L46.4114 317.183C43.1408 317.225 40.0116 317.296 36.7551 317.197C35.6224 317.112 34.4899 317.041 33.3855 316.673C31.9838 316.432 30.7662 315.639 29.8459 314.577C28.9256 313.515 28.4581 312.071 28.5714 310.655C28.4298 304.68 28.005 298.833 27.8493 293C27.0139 263.267 26.023 233.675 25.1735 203.942C24.5788 184.587 24.1113 165.402 23.5167 146.189C23.3892 140.073 22.9929 133.8 22.5823 127.67C22.4124 126.098 21.8037 124.767 20.8975 123.436C14.8659 114.488 8.69264 105.667 2.37788 96.8323C0.707154 94.4395 -0.963513 92.0466 0.664733 89.045C2.15139 86.1708 5.20968 84.9674 8.46617 85.2081C14.3986 85.6329 20.3311 86.0579 26.1361 86.1995C37.1799 86.5676 48.2377 86.7939 59.2956 87.0204C73.1853 87.3178 87.0893 87.4596 100.993 87.6153C123.534 87.9551 145.947 88.2949 168.487 88.6489C173.599 88.7338 178.71 88.677 183.948 88.7619C184.94 88.8327 185.803 88.6063 187.092 88.5639L186.936 88.6911H186.894ZM145.154 307.711L158.435 308.659C162.102 308.928 163.192 307.725 163.305 304.043C163.589 280.356 164.013 256.824 164.296 233.137C164.381 226.044 164.749 218.979 164.395 211.998C164.14 201.762 164.877 191.454 166.604 181.359C167.68 174.337 170.569 167.739 174.802 162.075C178.724 156.964 184.104 153.24 190.193 151.4C196.281 149.559 202.808 149.616 208.91 151.612C212.507 152.858 216.074 154.543 218.552 157.7C224.796 165.672 229.992 174.28 230.233 184.8C230.559 198.024 230.885 211.248 231.21 224.472C231.607 248.485 231.876 272.498 232.272 296.525C232.315 299.796 232.357 303.208 232.513 306.904C240.073 306.309 247.408 309.112 255.124 306.266C253.496 249.929 251.882 193.606 250.282 136.859C248.186 136.42 246.091 135.995 243.967 135.839C233.773 135.386 223.749 134.806 213.54 134.494C201.633 134.211 189.711 134.197 177.662 133.9C171.291 133.73 164.806 132.979 158.449 132.654C154.498 132.37 150.576 131.663 146.711 133.942C146.669 134.509 146.485 135.202 146.442 135.768C145.763 190.52 145.083 245.257 144.418 300.008C144.389 302.273 144.786 304.723 145.14 307.725L145.154 307.711ZM372.146 100.613C369.597 100.429 367.912 100.301 366.199 100.471C360.507 100.627 354.943 101.08 349.265 101.094C338.618 101.037 327.999 100.698 317.224 100.485C286.174 99.9473 254.968 99.5509 223.918 99.1686C213.285 98.9704 202.624 99.1969 191.977 99.1403C185.45 99.0978 178.951 98.6306 172.296 98.4324C145.069 98.0359 117.842 97.6393 90.473 97.2287C73.7375 97.0164 57.002 96.8043 40.2806 96.4503C34.334 96.3087 28.2457 96.0113 22.1575 95.714C19.3399 95.5158 16.6358 95.4592 13.5209 95.3742C13.7474 96.0963 13.9879 96.6909 14.3702 97.4271C19.255 104.45 24.2814 111.628 29.0246 118.637C29.5343 119.529 30.3411 120.152 31.3039 120.506C32.2667 121.001 33.2438 121.072 34.249 121.001C54.3826 121.313 74.6437 121.78 94.7773 122.233C106.826 122.53 118.861 122.828 131.066 122.998C155.023 123.451 178.866 123.606 202.822 124.045C229.469 124.541 256.101 125.32 282.62 125.815C304.453 126.254 326.285 126.693 348.104 127.259C352.21 127.415 355.353 127.075 356.812 122.63C356.982 122.219 357.293 121.808 357.605 121.412C361.555 115.876 365.364 110.184 369.314 104.648C370.107 103.43 370.758 102.34 371.891 100.429L372.16 100.584L372.146 100.613ZM70.3961 131.549C69.49 136.306 72.7325 304.185 73.7519 307.668L102.296 307.456C102.947 304.242 103.343 300.858 103.57 297.615C102.961 268.619 102.211 239.608 101.616 210.455C101.078 186.286 100.554 162.118 99.8745 137.935C99.8745 136.094 99.5771 134.225 99.4497 132.087L70.5237 131.563H70.382L70.3961 131.549ZM300.46 136.052C300.134 138.586 299.965 140.979 299.922 143.542C300.389 164.723 300.843 185.904 301.31 207.1C302.145 238.956 302.825 270.799 303.66 302.656C303.575 303.789 303.773 304.936 303.986 305.941C308.743 306.847 321.259 306.62 324.459 305.431C324.091 249.335 323.893 192.969 323.567 136.448L300.46 136.066V136.052ZM260.745 163.151C261.92 203.97 263.138 244.238 264.327 284.915L293.664 283.627C292.616 242.949 291.682 202.711 290.79 161.905L260.745 163.151ZM62.5238 288.129C63.3592 282.508 60.8816 161.112 59.8338 157.913L33.173 157.559C34.8437 201.394 35.5518 244.747 37.2508 288.299L62.5238 288.129ZM134.974 287.379C135.526 244.124 136.177 201.578 136.574 158.606C127.47 158.946 118.72 158.167 110.281 159.13C109.615 164.34 112.716 285.071 113.637 287.987L135.115 287.407H134.974V287.379ZM333.804 284.094C338.349 283.995 342.469 284.009 346.589 284.023C350.143 283.995 353.838 283.839 357.42 283.528C360.564 283.188 360.734 282.777 360.691 279.507C360.28 263.578 359.856 247.65 359.445 231.721C358.893 209.818 358.355 187.773 357.944 165.884C358.029 164.751 357.817 163.746 357.647 162.174C349.364 162.854 341.435 162.571 333.393 163.831C333.634 203.885 333.747 243.629 333.974 283.967L333.818 284.094H333.804ZM194.327 306.989C195.162 299.385 194.115 266.523 193.053 263.606C191.495 263.493 190.093 263.252 188.564 262.856C187.432 262.771 186.355 261.992 185.704 261.086C185.053 260.18 184.713 259.033 184.812 257.759C184.982 255.352 186.809 253.78 189.64 253.71C190.787 253.653 192.062 253.597 193.619 253.568C193.279 234.666 192.897 216.331 192.557 197.415L174.208 197.939C174.009 216.515 173.981 234.695 173.386 252.676C172.707 275.91 172.523 304.143 173.585 307.059L194.327 306.847V306.989ZM221.285 196.65L201.958 196.962C202.425 216.02 202.921 234.794 203.289 253.412C209.93 253.894 211.714 254.729 211.926 257.731C212.138 260.732 210.015 262.559 203.516 264.088C203.785 278.162 204.04 292.377 204.393 307.017L222.856 306.932C222.389 270.134 221.865 233.902 221.412 196.82L221.285 196.665V196.65ZM220.435 186.782C220.478 186.215 220.662 185.522 220.704 184.956C220.308 176.687 216.386 170.018 211.431 163.845C210.51 162.783 209.293 161.99 208.061 161.325C204.776 159.668 201.279 158.989 197.569 159.144C194.001 159.456 190.504 160.617 187.516 162.684C178.724 168.574 176.346 177.777 175.312 188.212L220.421 186.64V186.782H220.435ZM199.75 14.6702C199.552 15.5056 199.339 16.3406 199.282 17.1901C199.098 27.6817 198.759 38.3007 198.574 48.7922C198.447 50.4913 199.396 51.2701 200.755 52.0771C205.116 54.6681 209.448 57.5281 213.809 60.1191C217.335 62.3562 221.172 64.3386 224.881 66.0235C227.628 67.3544 230.573 67.7081 233.461 67.2126C233.603 63.2482 233.462 59.4112 233.731 55.5884C233.957 52.4877 232.669 50.6894 230.219 49.0895C221.554 43.3553 214.305 35.5966 208.84 26.6767C207.07 23.7034 205.002 20.8575 202.78 18.1532C201.732 16.9355 200.684 15.7321 199.622 14.656H199.764L199.75 14.6702ZM260.688 136.448C259.74 139.79 260.009 149.885 261.184 153.24C270.854 152.943 280.525 152.787 290.379 151.938C290.337 146.685 290.676 141.885 289.742 137.128C279.774 135.556 270.217 136.151 260.703 136.321V136.462L260.688 136.448ZM60.5276 148.299C60.386 142.324 60.2019 137.057 60.1594 131.804C55.1331 130.728 35.8349 130.473 32.6351 131.521L33.0174 147.874L60.6693 148.299H60.5276ZM136.857 133.078L111.428 131.252C111.145 131.238 110.848 131.493 110.536 131.762C110.239 132.031 110.069 132.3 109.913 132.569C109.899 132.852 109.729 133.121 109.701 133.546C109.177 138.756 109.233 144.023 109.856 149.177C118.96 148.979 127.725 149.474 136.574 148.823C136.673 145.425 136.743 142.593 136.814 139.62C136.956 137.638 136.814 135.5 136.701 133.22L136.857 133.093V133.078ZM294.046 305.941C293.919 301.821 293.791 297.686 293.664 293.566C287.477 292.83 267.371 293.948 264.582 295.308C264.554 299.569 264.257 303.803 265.941 307.895C275.428 308.149 284.673 307.966 294.046 305.941ZM333.393 153.75L357.477 152.504C357.449 146.968 357.803 142.027 356.033 137.071C348.401 136.661 340.883 136.547 333.209 136.703C333.209 142.522 333.28 147.633 333.407 153.608V153.75H333.393ZM361.328 305.955C361.243 301.268 361.102 297.276 360.988 293.014L333.974 293.623L334.215 305.983L361.328 305.955ZM63.2601 297.7C54.326 297.63 46.0856 297.601 37.6895 297.984C37.647 300.532 37.6329 302.812 37.7603 304.95C37.8595 307.513 38.1286 307.81 40.6771 307.852C45.6468 307.923 50.6163 307.852 55.7276 307.795L63.4018 307.64C63.3594 304.369 63.2884 301.382 63.2601 297.686V297.7ZM134.861 306.818L134.719 297.007L113.523 297.615L112.815 307.498L134.861 306.818Z" fill="#102185"/>
<path d="M136.645 102.538C139.463 102.737 141.926 104.053 143.923 106.05C144.843 107.111 145.933 107.749 147.307 108.287C148.553 108.655 149.969 108.768 151.271 108.428C154.443 107.806 157.472 107.027 160.517 106.106C165.897 104.365 170.881 104.011 175.27 108.159C176.474 109.235 177.904 109.065 179.22 108.584C182.689 107.692 186.172 106.673 189.627 105.922C194.398 104.705 198.943 104.747 203.432 107.338C204.663 107.99 206.079 108.103 207.509 107.919C209.662 107.65 211.828 107.097 213.867 106.389C216.047 105.696 218.341 105.441 220.45 105.583C222.716 105.738 224.924 106.474 226.836 107.607C229.696 109.235 233.207 109.773 236.535 108.867C238.12 108.556 239.55 108.372 241.009 107.919C245.936 106.574 251.302 106.814 256.144 108.726C258.764 109.759 261.737 109.986 264.47 109.32C265.772 108.995 267.188 108.952 268.618 108.91C269.609 108.98 270.572 109.334 271.238 109.943C272.045 110.566 272.554 111.458 272.766 112.322C272.979 113.327 272.908 114.318 272.568 115.14C272.214 116.102 271.464 116.768 270.714 117.278C269.822 117.787 268.802 118.127 267.797 118.34C262.898 119.401 258.042 119.769 253.355 117.872C249.759 116.485 245.794 116.329 242.028 117.476C239.437 118 236.705 118.509 233.986 118.736C230.39 119.331 226.765 118.495 223.636 116.57C222.418 115.777 221.031 115.395 219.488 115.14C218.072 115.041 216.5 115.21 215.183 115.678C213.159 116.244 211.276 116.81 209.251 117.235C207.509 117.674 205.655 117.83 203.828 117.561C201.987 117.433 200.345 116.74 198.844 115.777C197.896 115.14 196.933 114.786 195.8 114.701C194.667 114.616 193.535 114.545 192.515 114.885C188.905 115.762 185.294 116.64 181.67 117.646C177.04 118.878 172.778 118.991 169.054 115.465C167.596 114.078 165.741 114.234 163.986 114.814C160.8 115.72 157.6 116.768 154.287 117.376C151.993 117.773 149.714 117.9 147.434 117.872C145.735 117.886 143.909 117.617 142.394 116.938C140.737 116.244 139.392 115.295 138.061 114.064C137.41 113.313 136.589 112.818 135.612 112.605C134.621 112.534 133.629 112.464 132.752 112.973C130.132 113.922 127.485 115.154 124.724 115.946C122.543 116.64 120.264 116.768 117.857 116.725C116.724 116.64 115.775 116.145 114.968 115.38C114.161 114.616 113.836 113.455 113.906 112.322C113.977 111.331 114.204 110.212 114.827 109.405C115.45 108.598 116.356 107.947 117.361 107.749C121.141 106.46 124.922 105.314 128.688 104.167C131.152 103.487 133.728 103.105 136.178 102.723L136.617 102.468L136.645 102.538Z" fill="#102185"/>
</svg>

<svg xmlns="http://www.w3.org/2000/svg" width="385" height="318" fill="none" viewBox="0 0 385 318"><path fill="#102185" d="m186.894 88.691.269-3.809c.608-24.225 1.203-48.323 1.67-72.42.156-2.266.057-4.687.354-6.924.312-4.375 3.752-6.683 7.887-4.97a26.3 26.3 0 0 1 6.796 4.177 57.6 57.6 0 0 1 13.068 15.56c4.927 8.453 11.78 15.759 20.063 21.04 5.564 3.525 7.632 8.354 7.178 14.71-.339 4.659-.382 9.204-.707 13.862-.439 6.074-3.314 8.566-9.543 8.396-9.487-.255-17.77-3.554-25.486-8.792-2.166-1.43-4.191-3.002-6.201-4.56-1.076-.792-2.308-1.444-4.22-2.435-.212 8.934-.396 17.288-.566 25.655 1.416.1 2.393.312 3.384.383 26.958 2.223 53.987 1.33 80.917 1.996 19.553.41 39.134.694 58.701.963 7.519.113 15.207-.184 22.739-.354 4.545-.1 8.949-.07 13.493-.028 1.275.085 2.549.184 3.795.552.821.34 1.656.694 2.322 1.302.665.61 1.175 1.36 1.557 2.096.368.878.581 1.741.524 2.59-.056.85-.127 1.842-.609 2.507-.651 1.232-1.458 2.449-2.237 3.525-4.913 7.165-9.967 14.329-15.036 21.493-.623.807-.963 1.629-1.317 2.605-.212.977-.142 1.983-.212 2.96.538 4.446.212 8.962.594 13.38 2.521 29.987 1.926 60.046 3.03 90.076.836 23.914 1.246 47.786 1.798 71.671.1 6.542-2.208 8.92-9.047 9.288-5.833.142-11.794.142-17.769.284l-78.255.467c-14.484.099-29.096.028-43.594.127-22.159.113-44.176.368-66.334.482-14.059.127-27.977.113-42.037.24l-67.452.397c-3.27.042-6.4.113-9.656.014-1.133-.085-2.265-.156-3.37-.524-1.401-.241-2.619-1.034-3.54-2.096a5.4 5.4 0 0 1-1.274-3.922c-.141-5.975-.566-11.822-.722-17.655-.835-29.733-1.826-59.325-2.675-89.058-.595-19.355-1.063-38.54-1.657-57.753-.128-6.116-.524-12.389-.935-18.519-.17-1.572-.778-2.903-1.684-4.234-6.032-8.948-12.205-17.769-18.52-26.604C.708 94.44-.964 92.047.665 89.045c1.486-2.874 4.545-4.078 7.801-3.837 5.933.425 11.865.85 17.67.992 11.044.368 22.102.594 33.16.82 13.89.298 27.793.44 41.697.595 22.541.34 44.954.68 67.494 1.034 5.112.085 10.223.028 15.461.113.992.07 1.855-.156 3.144-.198l-.156.127zm-41.74 219.02 13.281.948c3.667.269 4.757-.934 4.87-4.616.284-23.687.708-47.219.991-70.906.085-7.093.453-14.158.099-21.139a158.7 158.7 0 0 1 2.209-30.639c1.076-7.022 3.965-13.62 8.198-19.284 3.922-5.111 9.302-8.835 15.391-10.675a31.16 31.16 0 0 1 18.717.212c3.597 1.246 7.164 2.931 9.642 6.088 6.244 7.972 11.44 16.58 11.681 27.1l.977 39.672c.397 24.013.666 48.026 1.062 72.053.043 3.271.085 6.683.241 10.379 7.56-.595 14.895 2.208 22.611-.638a241145 241145 0 0 1-4.842-169.407c-2.096-.439-4.191-.864-6.315-1.02-10.194-.453-20.218-1.033-30.427-1.345-11.907-.283-23.829-.297-35.878-.594-6.371-.17-12.856-.921-19.213-1.246-3.951-.284-7.873-.991-11.738 1.288-.042.567-.226 1.26-.269 1.826-.679 54.752-1.359 109.489-2.024 164.24-.029 2.265.368 4.715.722 7.717zm226.992-207.098c-2.549-.184-4.234-.312-5.947-.142-5.692.156-11.256.609-16.934.623-10.647-.057-21.266-.396-32.041-.609-31.05-.538-62.256-.934-93.306-1.316-10.633-.199-21.294.028-31.941-.029-6.527-.042-13.026-.51-19.681-.708-27.227-.396-54.454-.793-81.823-1.203-16.735-.213-33.471-.425-50.192-.779-5.947-.141-12.035-.439-18.123-.736-2.818-.198-5.522-.255-8.637-.34.226.722.467 1.317.85 2.053 4.884 7.023 9.91 14.201 14.654 21.21.51.892 1.316 1.515 2.279 1.869.963.495 1.94.566 2.945.495 20.134.312 40.395.779 60.528 1.232 12.049.297 24.084.595 36.289.765 23.957.453 47.8.608 71.756 1.047 26.647.496 53.279 1.275 79.798 1.77 21.833.439 43.665.878 65.484 1.444 4.106.156 7.249-.184 8.708-4.629.17-.411.481-.822.793-1.218 3.95-5.536 7.759-11.228 11.709-16.764.793-1.218 1.444-2.308 2.577-4.219l.269.155zm-301.75 30.936c-.906 4.757 2.337 172.636 3.356 176.119l28.544-.212c.651-3.214 1.047-6.598 1.274-9.841-.609-28.996-1.359-58.007-1.954-87.16-.538-24.169-1.062-48.337-1.742-72.52 0-1.841-.297-3.71-.424-5.848l-28.926-.524h-.142zm230.064 4.503a66 66 0 0 0-.538 7.49c.467 21.181.921 42.362 1.388 63.558.835 31.856 1.515 63.699 2.35 95.556-.085 1.133.113 2.28.326 3.285 4.757.906 17.273.679 20.473-.51-.368-56.096-.566-112.462-.892-168.983l-23.107-.382zm-39.715 27.099c1.175 40.819 2.393 81.087 3.582 121.764l29.337-1.288a31083 31083 0 0 1-2.874-121.722zM62.524 288.129c.835-5.621-1.642-127.017-2.69-130.216l-26.661-.354c1.67 43.835 2.379 87.188 4.078 130.74zm72.45-.75c.552-43.255 1.203-85.801 1.6-128.773-9.104.34-17.854-.439-26.293.524-.666 5.21 2.435 125.941 3.356 128.857l21.478-.58h-.141zm198.83-3.285c4.545-.099 8.665-.085 12.785-.071a139 139 0 0 0 10.831-.495c3.144-.34 3.314-.751 3.271-4.021-.411-15.929-.835-31.857-1.246-47.786-.552-21.903-1.09-43.948-1.501-65.837.085-1.133-.127-2.138-.297-3.71-8.283.68-16.212.397-24.254 1.657.241 40.054.354 79.798.581 120.136l-.156.127zm-139.477 22.895c.835-7.604-.212-40.466-1.274-43.383a24.4 24.4 0 0 1-4.489-.75c-1.132-.085-2.209-.864-2.86-1.77s-.991-2.053-.892-3.327c.17-2.407 1.997-3.979 4.828-4.049 1.147-.057 2.422-.113 3.979-.142-.34-18.902-.722-37.237-1.062-56.153l-18.349.524c-.199 18.576-.227 36.756-.822 54.737-.679 23.234-.863 51.467.199 54.383l20.742-.212zm26.958-110.339-19.327.312c.467 19.058.963 37.832 1.331 56.45 6.641.482 8.425 1.317 8.637 4.319s-1.911 4.828-8.41 6.357c.269 14.074.524 28.289.877 42.929l18.463-.085c-.467-36.798-.991-73.03-1.444-110.112l-.127-.155zm-.85-9.868c.043-.567.227-1.26.269-1.826-.396-8.269-4.318-14.938-9.273-21.111-.921-1.062-2.138-1.855-3.37-2.52-3.285-1.657-6.782-2.336-10.492-2.181-3.568.312-7.065 1.473-10.053 3.54-8.792 5.89-11.17 15.093-12.204 25.528l45.109-1.572v.142zM199.75 14.67c-.198.836-.411 1.67-.468 2.52-.184 10.492-.523 21.11-.708 31.602-.127 1.7.822 2.478 2.181 3.285 4.361 2.591 8.693 5.451 13.054 8.042 3.526 2.237 7.363 4.22 11.072 5.904 2.747 1.331 5.692 1.685 8.58 1.19.142-3.965.001-7.802.27-11.625.226-3.1-1.062-4.899-3.512-6.498-8.665-5.735-15.914-13.493-21.379-22.413-1.77-2.974-3.838-5.82-6.06-8.524-1.048-1.217-2.096-2.42-3.158-3.497h.142zm60.938 121.778c-.948 3.342-.679 13.437.496 16.792 9.67-.297 19.341-.453 29.195-1.302-.042-5.253.297-10.053-.637-14.81-9.968-1.572-19.525-.977-29.039-.807v.141zm-200.16 11.851c-.142-5.975-.326-11.242-.369-16.495-5.026-1.076-24.324-1.331-27.524-.283l.382 16.353 27.652.425zm76.329-15.221-25.429-1.826c-.283-.014-.58.241-.892.51-.297.269-.467.538-.623.807-.014.283-.184.552-.212.977a71.2 71.2 0 0 0 .155 15.631c9.104-.198 17.869.297 26.718-.354.099-3.398.169-6.23.24-9.203.142-1.982 0-4.12-.113-6.4l.156-.127zm157.189 172.863-.382-12.375c-6.187-.736-26.293.382-29.082 1.742-.028 4.261-.325 8.495 1.359 12.587 9.487.254 18.732.071 28.105-1.954m39.347-152.191 24.084-1.246c-.028-5.536.326-10.477-1.444-15.433-7.632-.41-15.15-.524-22.824-.368 0 5.819.071 10.93.198 16.905v.142zm27.935 152.205c-.085-4.687-.226-8.679-.34-12.941l-27.014.609.241 12.36zM63.26 297.7c-8.934-.07-17.174-.099-25.57.284-.043 2.548-.057 4.828.07 6.966.1 2.563.369 2.86 2.917 2.902 4.97.071 9.94 0 15.05-.057l7.675-.155c-.043-3.271-.114-6.258-.142-9.954zm71.601 9.118-.142-9.811-21.196.608-.708 9.883z"/><path fill="#102185" d="M136.645 102.538c2.818.199 5.281 1.515 7.278 3.512.92 1.061 2.01 1.699 3.384 2.237 1.246.368 2.662.481 3.964.141a95 95 0 0 0 9.246-2.322c5.38-1.741 10.364-2.095 14.753 2.053 1.204 1.076 2.634.906 3.95.425 3.469-.892 6.952-1.911 10.407-2.662 4.771-1.217 9.316-1.175 13.805 1.416 1.231.652 2.647.765 4.077.581 2.153-.269 4.319-.822 6.358-1.53a18 18 0 0 1 6.583-.806c2.266.155 4.474.891 6.386 2.024 2.86 1.628 6.371 2.166 9.699 1.26 1.585-.311 3.015-.495 4.474-.948 4.927-1.345 10.293-1.105 15.135.807 2.62 1.033 5.593 1.26 8.326.594 1.302-.325 2.718-.368 4.148-.41.991.07 1.954.424 2.62 1.033.807.623 1.316 1.515 1.528 2.379.213 1.005.142 1.996-.198 2.818-.354.962-1.104 1.628-1.854 2.138-.892.509-1.912.849-2.917 1.062-4.899 1.061-9.755 1.429-14.442-.468a17.34 17.34 0 0 0-11.327-.396c-2.591.524-5.323 1.033-8.042 1.26-3.596.595-7.221-.241-10.35-2.166-1.218-.793-2.605-1.175-4.148-1.43-1.416-.099-2.988.07-4.305.538-2.024.566-3.907 1.132-5.932 1.557-1.742.439-3.596.595-5.423.326-1.841-.128-3.483-.821-4.984-1.784-.948-.637-1.911-.991-3.044-1.076s-2.265-.156-3.285.184c-3.61.877-7.221 1.755-10.845 2.761-4.63 1.232-8.892 1.345-12.616-2.181-1.458-1.387-3.313-1.231-5.068-.651-3.186.906-6.386 1.954-9.699 2.562-2.294.397-4.573.524-6.853.496-1.699.014-3.525-.255-5.04-.934-1.657-.694-3.002-1.643-4.333-2.874a4.42 4.42 0 0 0-2.449-1.459c-.991-.071-1.983-.141-2.86.368-2.62.949-5.267 2.181-8.028 2.973-2.181.694-4.46.822-6.867.779-1.133-.085-2.082-.58-2.889-1.345-.807-.764-1.132-1.925-1.062-3.058.071-.991.298-2.11.921-2.917s1.529-1.458 2.534-1.656c3.78-1.289 7.561-2.435 11.327-3.582 2.464-.68 5.04-1.062 7.49-1.444l.439-.255z"/></svg>
